src/assets/outline/VideoTick.svg

<svg width="24" height="24" viewBox="0 0 24 24"  xmlns="http://www.w3.org/2000/svg">
<path d="M15 22.75H9C3.57 22.75 1.25 20.43 1.25 15V9C1.25 3.57 3.57 1.25 9 1.25H15C20.43 1.25 22.75 3.57 22.75 9V15C22.75 15.24 22.75 15.49 22.73 15.72C22.7 16.02 22.49 16.28 22.2 16.37C21.91 16.46 21.59 16.36 21.4 16.12C20.69 15.25 19.64 14.75 18.5 14.75C17.65 14.75 16.82 15.04 16.16 15.57C15.26 16.28 14.75 17.34 14.75 18.5C14.75 19.17 14.94 19.84 15.29 20.43C15.51 20.8 15.8 21.13 16.13 21.39C16.37 21.58 16.47 21.9 16.38 22.19C16.29 22.48 16.04 22.69 15.73 22.72C15.5 22.75 15.25 22.75 15 22.75ZM9 2.75C4.39 2.75 2.75 4.39 2.75 9V15C2.75 19.61 4.39 21.25 9 21.25H14.03C14.02 21.24 14.01 21.22 14 21.21C13.5 20.39 13.24 19.45 13.24 18.5C13.24 16.88 13.96 15.39 15.22 14.4C16.9 13.04 19.45 12.92 21.24 14.02V9C21.24 4.39 19.6 2.75 14.99 2.75H9Z" />
<path d="M21.48 7.85986H2.52002C2.11002 7.85986 1.77002 7.51986 1.77002 7.10986C1.77002 6.69986 2.11002 6.35986 2.52002 6.35986H21.48C21.89 6.35986 22.23 6.69986 22.23 7.10986C22.23 7.51986 21.9 7.85986 21.48 7.85986Z" />
<path d="M8.52002 7.71985C8.11002 7.71985 7.77002 7.37985 7.77002 6.96985V2.10986C7.77002 1.69986 8.11002 1.35986 8.52002 1.35986C8.93002 1.35986 9.27002 1.69986 9.27002 2.10986V6.96985C9.27002 7.37985 8.93002 7.71985 8.52002 7.71985Z" />
<path d="M15.48 7.2699C15.07 7.2699 14.73 6.9299 14.73 6.5199V2.10986C14.73 1.69986 15.07 1.35986 15.48 1.35986C15.89 1.35986 16.23 1.69986 16.23 2.10986V6.5199C16.23 6.9399 15.9 7.2699 15.48 7.2699Z" />
<path d="M18.5 23.75C17.32 23.75 16.18 23.35 15.26 22.62C15.24 22.6 15.21 22.59 15.19 22.57C14.72 22.19 14.32 21.74 14.01 21.21C13.51 20.39 13.25 19.45 13.25 18.5C13.25 16.88 13.97 15.39 15.23 14.4C16.15 13.66 17.31 13.25 18.5 13.25C20.09 13.25 21.57 13.95 22.56 15.18C23.32 16.1 23.75 17.28 23.75 18.5C23.75 19.45 23.49 20.38 22.99 21.21C22.7 21.69 22.35 22.1 21.95 22.45C21 23.29 19.78 23.75 18.5 23.75ZM16.07 21.35C16.1 21.37 16.12 21.39 16.15 21.41C16.81 21.96 17.64 22.26 18.5 22.26C19.42 22.26 20.27 21.94 20.96 21.33C21.25 21.08 21.5 20.78 21.71 20.45C22.06 19.86 22.25 19.19 22.25 18.52C22.25 17.65 21.95 16.81 21.4 16.15C20.69 15.27 19.63 14.77 18.5 14.77C17.65 14.77 16.82 15.06 16.16 15.59C15.26 16.3 14.75 17.36 14.75 18.52C14.75 19.19 14.94 19.86 15.29 20.45C15.5 20.78 15.76 21.09 16.07 21.35Z" />
<path d="M17.8502 20.3599C17.6602 20.3599 17.4702 20.2899 17.3202 20.1399L16.2102 19.0299C15.9202 18.7399 15.9202 18.2599 16.2102 17.9699C16.5002 17.6799 16.9802 17.6799 17.2702 17.9699L17.8702 18.5699L19.7402 16.8399C20.0402 16.5599 20.5202 16.5799 20.8002 16.8799C21.0802 17.1799 21.0602 17.6599 20.7602 17.9399L18.3602 20.1599C18.2202 20.2899 18.0402 20.3599 17.8502 20.3599Z" />
</svg>

<?xml version="1.0" encoding="UTF-8"?>
<svg width="24" height="24" viewBox="0 0 24 24" xmlns="http://www.w3.org/2000/svg">
 <path d="m15 22.75h-6c-5.43 0-7.75-2.32-7.75-7.75v-6c0-5.43 2.32-7.75 7.75-7.75h6c5.43 0 7.75 2.32 7.75 7.75v6c0 0.24 0 0.49-0.02 0.72-0.03 0.3-0.24 0.56-0.53 0.65s-0.61-0.01-0.8-0.25c-0.71-0.87-1.76-1.37-2.9-1.37-0.85 0-1.68 0.29-2.34 0.82-0.9 0.71-1.41 1.77-1.41 2.93 0 0.67 0.19 1.34 0.54 1.93 0.22 0.37 0.51 0.7 0.84 0.96 0.24 0.19 0.34 0.51 0.25 0.8s-0.34 0.5-0.65 0.53c-0.23 0.03-0.48 0.03-0.73 0.03zm-6-20c-4.61 0-6.25 1.64-6.25 6.25v6c0 4.61 1.64 6.25 6.25 6.25h5.03c-0.01-0.01-0.02-0.03-0.03-0.04-0.5-0.82-0.76-1.76-0.76-2.71 0-1.62 0.72-3.11 1.98-4.1 1.68-1.36 4.23-1.48 6.02-0.38v-5.02c0-4.61-1.64-6.25-6.25-6.25h-5.99z"/>
 <path d="m21.48 7.8599h-18.96c-0.41 0-0.75-0.34-0.75-0.75s0.34-0.75 0.75-0.75h18.96c0.41 0 0.75 0.34 0.75 0.75s-0.33 0.75-0.75 0.75z"/>
 <path d="m8.52 7.7198c-0.41 0-0.75-0.34-0.75-0.75v-4.86c0-0.41 0.34-0.75 0.75-0.75s0.75 0.34 0.75 0.75v4.86c0 0.41-0.34 0.75-0.75 0.75z"/>
 <path d="m15.48 7.2699c-0.41 0-0.75-0.34-0.75-0.75v-4.41c0-0.41 0.34-0.75 0.75-0.75s0.75 0.34 0.75 0.75v4.41c0 0.42-0.33 0.75-0.75 0.75z"/>
 <path d="m18.5 23.75c-1.18 0-2.32-0.4-3.24-1.13-0.02-0.02-0.05-0.03-0.07-0.05-0.47-0.38-0.87-0.83-1.18-1.36-0.5-0.82-0.76-1.76-0.76-2.71 0-1.62 0.72-3.11 1.98-4.1 0.92-0.74 2.08-1.15 3.27-1.15 1.59 0 3.07 0.7 4.06 1.93 0.76 0.92 1.19 2.1 1.19 3.32 0 0.95-0.26 1.88-0.76 2.71-0.29 0.48-0.64 0.89-1.04 1.24-0.95 0.84-2.17 1.3-3.45 1.3zm-2.43-2.4c0.03 0.02 0.05 0.04 0.08 0.06 0.66 0.55 1.49 0.85 2.35 0.85 0.92 0 1.77-0.32 2.46-0.93 0.29-0.25 0.54-0.55 0.75-0.88 0.35-0.59 0.54-1.26 0.54-1.93 0-0.87-0.3-1.71-0.85-2.37-0.71-0.88-1.77-1.38-2.9-1.38-0.85 0-1.68 0.29-2.34 0.82-0.9 0.71-1.41 1.77-1.41 2.93 0 0.67 0.19 1.34 0.54 1.93 0.21 0.33 0.47 0.64 0.78 0.9z"/>
 <path d="m17.85 20.36c-0.19 0-0.38-0.07-0.53-0.22l-1.11-1.11c-0.29-0.29-0.29-0.77 0-1.06s0.77-0.29 1.06 0l0.6 0.6 1.87-1.73c0.3-0.28 0.78-0.26 1.06 0.04s0.26 0.78-0.04 1.06l-2.4 2.22c-0.14 0.13-0.32 0.2-0.51 0.2z"/>
</svg>
